images/portal/4861.svg

<?xml version="1.0" standalone="no"?>
<!DOCTYPE svg PUBLIC "-//W3C//DTD SVG 1.1//EN" "http://www.w3.org/Graphics/SVG/1.1/DTD/svg11.dtd">
<svg xmlns:xlink="http://www.w3.org/1999/xlink" version="1.1" class="highcharts-root" style="font-family:arial;font-size:12px;" xmlns="http://www.w3.org/2000/svg" viewBox="0 0 485 415">
  <desc>
    Created with Highstock 5.0.14
  </desc>
  <defs>
    <clipPath id="highcharts-iwiu3ec-6">
      <rect x="0" y="0" width="283" height="295" fill="none"/>
    </clipPath>
    <clipPath id="highcharts-iwiu3ec-7">
      <rect x="0" y="0" width="283" height="295" fill="none"/>
    </clipPath>
  </defs>
  <rect fill="#fbfbfb" class="highcharts-background" x="0" y="0" width="485" height="415" rx="0" ry="0"/>
  <rect fill="none" class="highcharts-plot-background" x="53" y="55" width="283" height="295"/>
  <g class="highcharts-pane-group"/>
  <g class="highcharts-grid highcharts-xaxis-grid ">
    <path fill="none" class="highcharts-grid-line" d="M 109.5 55 L 109.5 350" opacity="1"/>
    <path fill="none" class="highcharts-grid-line" d="M 165.5 55 L 165.5 350" opacity="1"/>
    <path fill="none" class="highcharts-grid-line" d="M 222.5 55 L 222.5 350" opacity="1"/>
    <path fill="none" class="highcharts-grid-line" d="M 278.5 55 L 278.5 350" opacity="1"/>
    <path fill="none" class="highcharts-grid-line" d="M 335.5 55 L 335.5 350" opacity="1"/>
    <path fill="none" class="highcharts-grid-line" d="M 52.5 55 L 52.5 350" opacity="1"/>
  </g>
  <g class="highcharts-grid highcharts-yaxis-grid ">
    <path fill="none" stroke="#e6e6e6" stroke-width="1" class="highcharts-grid-line" d="M 53 350.5 L 336 350.5" opacity="1"/>
    <path fill="none" stroke="#e6e6e6" stroke-width="1" class="highcharts-grid-line" d="M 53 321.5 L 336 321.5" opacity="1"/>
    <path fill="none" stroke="#e6e6e6" stroke-width="1" class="highcharts-grid-line" d="M 53 291.5 L 336 291.5" opacity="1"/>
    <path fill="none" stroke="#e6e6e6" stroke-width="1" class="highcharts-grid-line" d="M 53 262.5 L 336 262.5" opacity="1"/>
    <path fill="none" stroke="#e6e6e6" stroke-width="1" class="highcharts-grid-line" d="M 53 232.5 L 336 232.5" opacity="1"/>
    <path fill="none" stroke="#e6e6e6" stroke-width="1" class="highcharts-grid-line" d="M 53 203.5 L 336 203.5" opacity="1"/>
    <path fill="none" stroke="#e6e6e6" stroke-width="1" class="highcharts-grid-line" d="M 53 173.5 L 336 173.5" opacity="1"/>
    <path fill="none" stroke="#e6e6e6" stroke-width="1" class="highcharts-grid-line" d="M 53 144.5 L 336 144.5" opacity="1"/>
    <path fill="none" stroke="#e6e6e6" stroke-width="1" class="highcharts-grid-line" d="M 53 114.5 L 336 114.5" opacity="1"/>
    <path fill="none" stroke="#e6e6e6" stroke-width="1" class="highcharts-grid-line" d="M 53 85.5 L 336 85.5" opacity="1"/>
    <path fill="none" stroke="#e6e6e6" stroke-width="1" class="highcharts-grid-line" d="M 53 54.5 L 336 54.5" opacity="1"/>
  </g>
  <rect fill="none" class="highcharts-plot-border" x="53" y="55" width="283" height="295"/>
  <g class="highcharts-axis highcharts-xaxis ">
    <path fill="none" class="highcharts-tick" stroke="#FFFFFF" stroke-width="1" d="M 109.5 350 L 109.5 360" opacity="1"/>
    <path fill="none" class="highcharts-tick" stroke="#FFFFFF" stroke-width="1" d="M 165.5 350 L 165.5 360" opacity="1"/>
    <path fill="none" class="highcharts-tick" stroke="#FFFFFF" stroke-width="1" d="M 222.5 350 L 222.5 360" opacity="1"/>
    <path fill="none" class="highcharts-tick" stroke="#FFFFFF" stroke-width="1" d="M 278.5 350 L 278.5 360" opacity="1"/>
    <path fill="none" class="highcharts-tick" stroke="#FFFFFF" stroke-width="1" d="M 336.5 350 L 336.5 360" opacity="1"/>
    <path fill="none" class="highcharts-tick" stroke="#FFFFFF" stroke-width="1" d="M 52.5 350 L 52.5 360" opacity="1"/>
    <path fill="none" class="highcharts-axis-line" stroke="#ccd6eb" stroke-width="1" d="M 53 350.5 L 336 350.5"/>
  </g>
  <g class="highcharts-axis highcharts-yaxis ">
    <path fill="none" class="highcharts-axis-line" d="M 53 55 L 53 350"/>
  </g>
  <g class="highcharts-series-group">
    <g class="highcharts-series highcharts-series-0 highcharts-column-series highcharts-color-undefined " transform="translate(53,55) scale(1 1)" clip-path="url(#highcharts-iwiu3ec-7)">
      <rect x="14.5" y="233.5" width="28" height="62" fill="#007A2F" stroke="#ffffff" stroke-width="1" class="highcharts-point"/>
      <rect x="70.5" y="240.5" width="28" height="55" fill="#007A2F" stroke="#ffffff" stroke-width="1" class="highcharts-point"/>
      <rect x="127.5" y="237.5" width="28" height="58" fill="#007A2F" stroke="#ffffff" stroke-width="1" class="highcharts-point"/>
      <rect x="184.5" y="202.5" width="28" height="93" fill="#007A2F" stroke="#ffffff" stroke-width="1" class="highcharts-point"/>
      <rect x="240.5" y="203.5" width="28" height="92" fill="#007A2F" stroke="#ffffff" stroke-width="1" class="highcharts-point"/>
    </g>
    <g class="highcharts-markers highcharts-series-0 highcharts-column-series highcharts-color-undefined " transform="translate(53,55) scale(1 1)" clip-path="none"/>
    <g class="highcharts-series highcharts-series-1 highcharts-column-series highcharts-color-undefined " transform="translate(53,55) scale(1 1)" clip-path="url(#highcharts-iwiu3ec-7)">
      <rect x="14.5" y="51.5" width="28" height="182" fill="#73BA7C" stroke="#ffffff" stroke-width="1" class="highcharts-point"/>
      <rect x="70.5" y="47.5" width="28" height="193" fill="#73BA7C" stroke="#ffffff" stroke-width="1" class="highcharts-point"/>
      <rect x="127.5" y="44.5" width="28" height="193" fill="#73BA7C" stroke="#ffffff" stroke-width="1" class="highcharts-point"/>
      <rect x="184.5" y="38.5" width="28" height="164" fill="#73BA7C" stroke="#ffffff" stroke-width="1" class="highcharts-point"/>
      <rect x="240.5" y="30.5" width="28" height="173" fill="#73BA7C" stroke="#ffffff" stroke-width="1" class="highcharts-point"/>
    </g>
    <g class="highcharts-markers highcharts-series-1 highcharts-column-series highcharts-color-undefined " transform="translate(53,55) scale(1 1)" clip-path="none"/>
    <g class="highcharts-series highcharts-series-2 highcharts-column-series highcharts-color-undefined " transform="translate(53,55) scale(1 1)" clip-path="url(#highcharts-iwiu3ec-7)">
      <rect x="14.5" y="48.5" width="28" height="3" fill="#C8C8C8" stroke="#ffffff" stroke-width="1" class="highcharts-point"/>
      <rect x="70.5" y="46.5" width="28" height="1" fill="#C8C8C8" stroke="#ffffff" stroke-width="1" class="highcharts-point"/>
      <rect x="127.5" y="43.5" width="28" height="1" fill="#C8C8C8" stroke="#ffffff" stroke-width="1" class="highcharts-point"/>
      <rect x="184.5" y="37.5" width="28" height="1" fill="#C8C8C8" stroke="#ffffff" stroke-width="1" class="highcharts-point"/>
      <rect x="240.5" y="29.5" width="28" height="1" fill="#C8C8C8" stroke="#ffffff" stroke-width="1" class="highcharts-point"/>
    </g>
    <g class="highcharts-markers highcharts-series-2 highcharts-column-series highcharts-color-undefined " transform="translate(53,55) scale(1 1)" clip-path="none"/>
    <g class="highcharts-series highcharts-series-3 highcharts-column-series highcharts-color-undefined " transform="translate(53,55) scale(1 1)" clip-path="url(#highcharts-iwiu3ec-7)">
      <rect x="14.5" y="6.5" width="28" height="42" fill="#FFBB58" stroke="#ffffff" stroke-width="1" class="highcharts-point"/>
      <rect x="70.5" y="8.5" width="28" height="38" fill="#FFBB58" stroke="#ffffff" stroke-width="1" class="highcharts-point"/>
      <rect x="127.5" y="5.5" width="28" height="38" fill="#FFBB58" stroke="#ffffff" stroke-width="1" class="highcharts-point"/>
      <rect x="184.5" y="9.5" width="28" height="28" fill="#FFBB58" stroke="#ffffff" stroke-width="1" class="highcharts-point"/>
      <rect x="240.5" y="3.5" width="28" height="26" fill="#FFBB58" stroke="#ffffff" stroke-width="1" class="highcharts-point"/>
    </g>
    <g class="highcharts-markers highcharts-series-3 highcharts-column-series highcharts-color-undefined " transform="translate(53,55) scale(1 1)" clip-path="none"/>
    <g class="highcharts-series highcharts-series-4 highcharts-column-series highcharts-color-undefined " transform="translate(53,55) scale(1 1)" clip-path="url(#highcharts-iwiu3ec-7)">
      <rect x="14.5" y="-0.5" width="28" height="7" fill="#FF8028" stroke="#ffffff" stroke-width="1" class="highcharts-point"/>
      <rect x="70.5" y="-0.5" width="28" height="9" fill="#FF8028" stroke="#ffffff" stroke-width="1" class="highcharts-point"/>
      <rect x="127.5" y="-0.5" width="28" height="6" fill="#FF8028" stroke="#ffffff" stroke-width="1" class="highcharts-point"/>
      <rect x="184.5" y="-0.5" width="28" height="10" fill="#FF8028" stroke="#ffffff" stroke-width="1" class="highcharts-point"/>
      <rect x="240.5" y="-0.5" width="28" height="4" fill="#FF8028" stroke="#ffffff" stroke-width="1" class="highcharts-point"/>
    </g>
    <g class="highcharts-markers highcharts-series-4 highcharts-column-series highcharts-color-undefined " transform="translate(53,55) scale(1 1)" clip-path="none"/>
  </g>
  <text x="10" text-anchor="start" class="highcharts-title" style="color:#000000;font-size:14px;font-weight:bold;fill:#000000;" y="21">
    <tspan>Beurteilung der eigenen wirtschaftlichen Situation</tspan>
  </text>
  <text x="10" text-anchor="start" class="highcharts-subtitle" style="color:#000000;font-size:12px;fill:#000000;" y="40">
    <tspan>«Wie geht es Ihnen wirtschaftlich gesehen im Moment?»</tspan>
  </text>
  <g class="highcharts-legend" transform="translate(348,137)">
    <rect fill="none" class="highcharts-legend-box" rx="0" ry="0" x="0" y="0" width="126" height="121" visibility="visible"/>
    <g>
      <g>
        <g class="highcharts-legend-item highcharts-column-series highcharts-color-undefined highcharts-series-4" transform="translate(8,3)">
          <text x="21" style="color:#333333;font-size:12px;font-weight:normal;cursor:pointer;fill:#333333;" text-anchor="start" y="15">
            <tspan>Gar nicht gut</tspan>
          </text>
          <rect x="2" y="4" width="12" height="12" fill="#FF8028" class="highcharts-point"/>
        </g>
        <g class="highcharts-legend-item highcharts-column-series highcharts-color-undefined highcharts-series-3" transform="translate(8,22)">
          <text x="21" y="15" style="color:#333333;font-size:12px;font-weight:normal;cursor:pointer;fill:#333333;" text-anchor="start">
            <tspan>Eher nicht so gut</tspan>
          </text>
          <rect x="2" y="4" width="12" height="12" fill="#FFBB58" class="highcharts-point"/>
        </g>
        <g class="highcharts-legend-item highcharts-column-series highcharts-color-undefined highcharts-series-2" transform="translate(8,41)">
          <text x="21" y="15" style="color:#333333;font-size:12px;font-weight:normal;cursor:pointer;fill:#333333;" text-anchor="start">
            <tspan>Weiss nicht /</tspan><tspan x="21" dy="15">keine Angabe</tspan>
          </text>
          <rect x="2" y="4" width="12" height="12" fill="#C8C8C8" class="highcharts-point"/>
        </g>
        <g class="highcharts-legend-item highcharts-column-series highcharts-color-undefined highcharts-series-1" transform="translate(8,75)">
          <text x="21" y="15" style="color:#333333;font-size:12px;font-weight:normal;cursor:pointer;fill:#333333;" text-anchor="start">
            <tspan>Eher gut</tspan>
          </text>
          <rect x="2" y="4" width="12" height="12" fill="#73BA7C" class="highcharts-point"/>
        </g>
        <g class="highcharts-legend-item highcharts-column-series highcharts-color-undefined highcharts-series-0" transform="translate(8,94)">
          <text x="21" y="15" style="color:#333333;font-size:12px;font-weight:normal;cursor:pointer;fill:#333333;" text-anchor="start">
            <tspan>Sehr gut</tspan>
          </text>
          <rect x="2" y="4" width="12" height="12" fill="#007A2F" class="highcharts-point"/>
        </g>
      </g>
    </g>
  </g>
  <g class="highcharts-axis-labels highcharts-xaxis-labels ">
    <text x="81.3" style="color:#000000;cursor:default;font-size:11px;fill:#000000;" text-anchor="middle" transform="translate(0,0)" y="369" opacity="1">
      <tspan>2003</tspan><tspan x="81.3" dy="14">(N=1497)</tspan>
    </text>
    <text x="137.89999999999998" style="color:#000000;cursor:default;font-size:11px;fill:#000000;" text-anchor="middle" transform="translate(0,0)" y="369" opacity="1">
      <tspan>2005</tspan><tspan x="137.89999999999998" dy="14">(N=782)</tspan>
    </text>
    <text x="194.5" style="color:#000000;cursor:default;font-size:11px;fill:#000000;" text-anchor="middle" transform="translate(0,0)" y="369" opacity="1">
      <tspan>2007</tspan><tspan x="194.5" dy="14">(N=762)</tspan>
    </text>
    <text x="251.09999999999997" style="color:#000000;cursor:default;font-size:11px;fill:#000000;" text-anchor="middle" transform="translate(0,0)" y="369" opacity="1">
      <tspan>2011</tspan><tspan x="251.09999999999997" dy="14">(N=1009)</tspan>
    </text>
    <text x="307.7" style="color:#000000;cursor:default;font-size:11px;fill:#000000;" text-anchor="middle" transform="translate(0,0)" y="369" opacity="1">
      <tspan>2015</tspan><tspan x="307.7" dy="14">(N=1001)</tspan>
    </text>
  </g>
  <g class="highcharts-axis-labels highcharts-yaxis-labels ">
    <text x="38" style="color:#000000;cursor:default;font-size:11px;fill:#000000;" text-anchor="end" transform="translate(0,0)" y="355" opacity="1">
      <tspan>0%</tspan>
    </text>
    <text x="38" style="color:#000000;cursor:default;font-size:11px;fill:#000000;" text-anchor="end" transform="translate(0,0)" y="325" opacity="1">
      <tspan>10%</tspan>
    </text>
    <text x="38" style="color:#000000;cursor:default;font-size:11px;fill:#000000;" text-anchor="end" transform="translate(0,0)" y="296" opacity="1">
      <tspan>20%</tspan>
    </text>
    <text x="38" style="color:#000000;cursor:default;font-size:11px;fill:#000000;" text-anchor="end" transform="translate(0,0)" y="266" opacity="1">
      <tspan>30%</tspan>
    </text>
    <text x="38" style="color:#000000;cursor:default;font-size:11px;fill:#000000;" text-anchor="end" transform="translate(0,0)" y="237" opacity="1">
      <tspan>40%</tspan>
    </text>
    <text x="38" style="color:#000000;cursor:default;font-size:11px;fill:#000000;" text-anchor="end" transform="translate(0,0)" y="207" opacity="1">
      <tspan>50%</tspan>
    </text>
    <text x="38" style="color:#000000;cursor:default;font-size:11px;fill:#000000;" text-anchor="end" transform="translate(0,0)" y="178" opacity="1">
      <tspan>60%</tspan>
    </text>
    <text x="38" style="color:#000000;cursor:default;font-size:11px;fill:#000000;" text-anchor="end" transform="translate(0,0)" y="148" opacity="1">
      <tspan>70%</tspan>
    </text>
    <text x="38" style="color:#000000;cursor:default;font-size:11px;fill:#000000;" text-anchor="end" transform="translate(0,0)" y="119" opacity="1">
      <tspan>80%</tspan>
    </text>
    <text x="38" style="color:#000000;cursor:default;font-size:11px;fill:#000000;" text-anchor="end" transform="translate(0,0)" y="89" opacity="1">
      <tspan>90%</tspan>
    </text>
    <text x="38" style="color:#000000;cursor:default;font-size:11px;fill:#000000;" text-anchor="end" transform="translate(0,0)" y="60" opacity="1">
      <tspan>100%</tspan>
    </text>
  </g>
  <text x="10" class="highcharts-credits" text-anchor="start" style="cursor:default;color:#000000;font-size:10px;fill:#000000;" y="400">
    <tspan>Quelle: Statistisches Amt Basel-Stadt, kantonale Bevölkerungsbefragung: F14b</tspan>
  </text>
</svg>

<svg class="highcharts-root" xmlns="http://www.w3.org/2000/svg" viewBox="0 0 485 415" font-family="arial" font-size="12">
    <defs>
        <clipPath id="a">
            <path fill="none" d="M0 0h283v295H0z"/>
        </clipPath>
    </defs>
    <rect fill="#fbfbfb" class="highcharts-background" width="485" height="415" rx="0" ry="0"/>
    <path fill="none" class="highcharts-plot-background" d="M53 55h283v295H53z"/>
    <g class="highcharts-grid highcharts-xaxis-grid">
        <path fill="none" class="highcharts-grid-line" d="M109.5 55v295m56-295v295m57-295v295m56-295v295m57-295v295M52.5 55v295"/>
    </g>
    <g class="highcharts-grid highcharts-yaxis-grid">
        <path fill="none" stroke="#e6e6e6" class="highcharts-grid-line" d="M53 350.5h283m-283-29h283m-283-30h283m-283-29h283m-283-30h283m-283-29h283m-283-30h283m-283-29h283m-283-30h283m-283-29h283m-283-31h283"/>
    </g>
    <path fill="none" class="highcharts-plot-border" d="M53 55h283v295H53z"/>
    <g class="highcharts-axis highcharts-xaxis">
        <path fill="none" class="highcharts-tick" stroke="#FFF" d="M109.5 350v10m56-10v10m57-10v10m56-10v10m58-10v10m-284-10v10"/>
        <path fill="none" class="highcharts-axis-line" stroke="#ccd6eb" d="M53 350.5h283"/>
    </g>
    <g class="highcharts-axis highcharts-yaxis">
        <path fill="none" class="highcharts-axis-line" d="M53 55v295"/>
    </g>
    <g class="highcharts-series-group">
        <g class="highcharts-series highcharts-series-0 highcharts-column-series highcharts-color-undefined" transform="translate(53 55)" clip-path="url(#a)">
            <path fill="#007A2F" stroke="#fff" class="highcharts-point" d="M14.5 233.5h28v62h-28zm56 7h28v55h-28zm57-3h28v58h-28zm57-35h28v93h-28zm56 1h28v92h-28z"/>
        </g>
        <g class="highcharts-series highcharts-series-1 highcharts-column-series highcharts-color-undefined" transform="translate(53 55)" clip-path="url(#a)">
            <path fill="#73BA7C" stroke="#fff" class="highcharts-point" d="M14.5 51.5h28v182h-28zm56-4h28v193h-28zm57-3h28v193h-28zm57-6h28v164h-28zm56-8h28v173h-28z"/>
        </g>
        <g class="highcharts-series highcharts-series-2 highcharts-column-series highcharts-color-undefined" transform="translate(53 55)" clip-path="url(#a)">
            <path fill="#C8C8C8" stroke="#fff" class="highcharts-point" d="M14.5 48.5h28v3h-28zm56-2h28v1h-28zm57-3h28v1h-28zm57-6h28v1h-28zm56-8h28v1h-28z"/>
        </g>
        <g class="highcharts-series highcharts-series-3 highcharts-column-series highcharts-color-undefined" transform="translate(53 55)" clip-path="url(#a)">
            <path fill="#FFBB58" stroke="#fff" class="highcharts-point" d="M14.5 6.5h28v42h-28zm56 2h28v38h-28zm57-3h28v38h-28zm57 4h28v28h-28zm56-6h28v26h-28z"/>
        </g>
        <g class="highcharts-series highcharts-series-4 highcharts-column-series highcharts-color-undefined" transform="translate(53 55)" clip-path="url(#a)">
            <path fill="#FF8028" stroke="#fff" class="highcharts-point" d="M14.5-.5h28v7h-28zm56 0h28v9h-28zm57 0h28v6h-28zm57 0h28v10h-28zm56 0h28v4h-28z"/>
        </g>
    </g>
    <text x="10" class="highcharts-title" y="21" color="#000" font-size="14" font-weight="700">
        <tspan>Beurteilung der eigenen wirtschaftlichen Situation</tspan>
    </text>
    <text x="10" class="highcharts-subtitle" y="40" color="#000">
        <tspan>«Wie geht es Ihnen wirtschaftlich gesehen im Moment?»</tspan>
    </text>
    <g class="highcharts-legend" transform="translate(348 137)">
        <rect fill="none" class="highcharts-legend-box" rx="0" ry="0" width="126" height="121"/>
        <g class="highcharts-legend-item highcharts-column-series highcharts-color-undefined highcharts-series-4">
            <text x="21" y="15" color="#333" font-weight="400" cursor="pointer" fill="#333" transform="translate(8 3)">
                <tspan>Gar nicht gut</tspan>
            </text>
            <path fill="#FF8028" class="highcharts-point" d="M10 7h12v12H10z"/>
        </g>
        <g class="highcharts-legend-item highcharts-column-series highcharts-color-undefined highcharts-series-3">
            <text x="21" y="15" color="#333" font-weight="400" cursor="pointer" fill="#333" transform="translate(8 22)">
                <tspan>Eher nicht so gut</tspan>
            </text>
            <path fill="#FFBB58" class="highcharts-point" d="M10 26h12v12H10z"/>
        </g>
        <g class="highcharts-legend-item highcharts-column-series highcharts-color-undefined highcharts-series-2">
            <text x="21" y="15" color="#333" font-weight="400" cursor="pointer" fill="#333" transform="translate(8 41)">
                <tspan>Weiss nicht /</tspan><tspan x="21" dy="15">keine Angabe</tspan>
            </text>
            <path fill="#C8C8C8" class="highcharts-point" d="M10 45h12v12H10z"/>
        </g>
        <g class="highcharts-legend-item highcharts-column-series highcharts-color-undefined highcharts-series-1">
            <text x="21" y="15" color="#333" font-weight="400" cursor="pointer" fill="#333" transform="translate(8 75)">
                <tspan>Eher gut</tspan>
            </text>
            <path fill="#73BA7C" class="highcharts-point" d="M10 79h12v12H10z"/>
        </g>
        <g class="highcharts-legend-item highcharts-column-series highcharts-color-undefined highcharts-series-0">
            <text x="21" y="15" color="#333" font-weight="400" cursor="pointer" fill="#333" transform="translate(8 94)">
                <tspan>Sehr gut</tspan>
            </text>
            <path fill="#007A2F" class="highcharts-point" d="M10 98h12v12H10z"/>
        </g>
    </g>
    <g class="highcharts-axis-labels highcharts-xaxis-labels" text-anchor="middle" color="#000" cursor="default" font-size="11">
        <text x="81.3" y="369">
            <tspan>2003</tspan><tspan x="81.3" dy="14">(N=1497)</tspan>
        </text>
        <text x="137.9" y="369">
            <tspan>2005</tspan><tspan x="137.9" dy="14">(N=782)</tspan>
        </text>
        <text x="194.5" y="369">
            <tspan>2007</tspan><tspan x="194.5" dy="14">(N=762)</tspan>
        </text>
        <text x="251.1" y="369">
            <tspan>2011</tspan><tspan x="251.1" dy="14">(N=1009)</tspan>
        </text>
        <text x="307.7" y="369">
            <tspan>2015</tspan><tspan x="307.7" dy="14">(N=1001)</tspan>
        </text>
    </g>
    <g class="highcharts-axis-labels highcharts-yaxis-labels" text-anchor="end" color="#000" cursor="default" font-size="11">
        <text x="38" y="355">
            <tspan>0%</tspan>
        </text>
        <text x="38" y="325">
            <tspan>10%</tspan>
        </text>
        <text x="38" y="296">
            <tspan>20%</tspan>
        </text>
        <text x="38" y="266">
            <tspan>30%</tspan>
        </text>
        <text x="38" y="237">
            <tspan>40%</tspan>
        </text>
        <text x="38" y="207">
            <tspan>50%</tspan>
        </text>
        <text x="38" y="178">
            <tspan>60%</tspan>
        </text>
        <text x="38" y="148">
            <tspan>70%</tspan>
        </text>
        <text x="38" y="119">
            <tspan>80%</tspan>
        </text>
        <text x="38" y="89">
            <tspan>90%</tspan>
        </text>
        <text x="38" y="60">
            <tspan>100%</tspan>
        </text>
    </g>
    <text x="10" class="highcharts-credits" y="400" cursor="default" color="#000" font-size="10">
        <tspan>Quelle: Statistisches Amt Basel-Stadt, kantonale Bevölkerungsbefragung: F14b</tspan>
    </text>
</svg>
